X:9
T:The Rose In The Gap
S:Tripswitch
Z:robin.beech@mcgill.ca
M:4/4
L:1/8
R:march
K:Edor
|:  B3c B2AF | B2E2 E2FA | B3c B2AF | A2D2 D2FA | 
B3cB2 AF | AF ABd3e | fedc (3Bcd AF |1 A2D2 D2FA :|2 A2D2 D2de ||
fedc (3Bcd AF | B2E2 E2de | fedc (3Bcd AF | A2D2 D2de |
fedc (3Bcd AF | AF ABd3e | fedc (3Bcd AF | A2D2 D2B2 |:
e3g f2(3efg | f2e2 e2B2 | eBeg f2(3efg | f2d2 d2B2 |
eBeg f2ec | dcde f3e | dcBA (3Bcd AF | A2D2 D2B2 :|
